X:1
T:Title
%%score { ( 1 3 ) | ( 2 4 ) }
L:1/8
M:4/4
K:G
V:1 treble nm="Grand Piano"
V:3 treble 
V:2 bass 
V:4 bass 
V:1
 z4 z2[Q:1/4=100] [B,D][B,D] | [B,G]2 [B,G]2 [B,G][CF][DG]A | BABc d2 ee | d2 d2 dBAG | %4
 [^CGB][CGA][CGA][CGB] [=CFA]2[K:bass] [F,CD][CD] | [B,G]2 [B,G]2 [B,G][CF][DG]A | BABc d2 ee | %7
 d2 d2 dB[DG][EGA] |[M:9/8] [DGB][EGc][DGB] [CFA] G2- G z z |[M:4/4] d d2 e d2 B2 | GABc d4 | %11
 d d2 e d2 B2 |[M:3/4] AG [DF][^CG] A2 |[M:1/4] D2 |[M:4/4] [B,G] [B,G]2 [CA] [DB]2 [B,G]G | %15
[M:9/8] [Ec][DB][Ec] [Gd] [Ge]2 [Ge]3 |[M:4/4] [Gd] [Gd]2 [EGc] [DGB]2 [B,G]2 |[M:3/4] G2 z2 z2 |] %18
V:2
 z4 z2 [G,,G,][G,,G,] | [G,,D,]2 [G,,D,]2 [G,,D,][A,,D,][B,,G,][D,F,D] | %2
 [G,D][D,F,D][K:treble][G,D][G,A,D] [G,B,D]2 [CG][CG] | %3
 [B,DG]2 [A,CF]2 [G,B,G][G,DG][G,CG][K:bass][G,B,] | E,E,E,E, D,2 D,D, | %5
 [G,,D,]2 [G,,D,]2 [G,,D,][A,,D,][B,,G,][D,F,D] | %6
 [G,D][D,F,D][K:treble][G,D][G,A,D] [G,B,D]2 [CG][CG] | %7
 [B,DG]2 [A,CF]2 [G,B,G][G,DG][K:bass]B,,C, |[M:9/8] D,C,D, D, [G,B,]2- [G,B,] z z | %9
[M:4/4][K:treble] [G,B,G] [G,B,G]2 [G,CG] [G,B,G]2 [G,DG]2 | [G,B,][G,CG][G,DG][G,A,G] [G,B,G]4 | %11
 [G,B,G] [G,B,G]2 [G,CG] [G,B,G]2 [G,DG]2 |[M:3/4] [A,^CG][K:bass][A,CE] [A,,A,][A,,E,] [D,F,=C]2 | %13
[M:1/4] [D,C]2 |[M:4/4] [G,,D,] [G,,D,]2 [G,,D,] [G,,G,]2 [G,,G,][G,=F] | %15
[M:9/8] [C,G,][C,G,][C,C] [G,B,] [C,C]2 [^C,_B,]3 |[M:4/4] [D,B,] [D,B,]2 D, D,2 D,2 | %17
[M:3/4] z2[K:treble] F2 G,2 |] %18
V:3
 x8 | x8 | x8 | x8 | x6[K:bass] x2 | x8 | x8 | x8 |[M:9/8] x9 |[M:4/4] x8 | x8 | x8 |[M:3/4] x6 | %13
[M:1/4] x2 |[M:4/4] x8 |[M:9/8] x9 |[M:4/4] x8 |[M:3/4] [CA]4 [B,G]2 |] %18
V:4
 x8 | x8 | x2[K:treble] x6 | x7[K:bass] x | x8 | x8 | x2[K:treble] x6 | x6[K:bass] x2 |[M:9/8] x9 | %9
[M:4/4][K:treble] x8 | x8 | x8 |[M:3/4] x[K:bass] x5 |[M:1/4] x2 |[M:4/4] x8 |[M:9/8] x9 | %16
[M:4/4] x8 |[M:3/4] D,4[K:treble] z2 |] %18

